packages/icons/src/lib/svgs/life-ring.svg

<svg
        aria-hidden="true"
        data-testid="test-icon"
        fill="none"
        
        viewBox="0 0 24 24"
        
        xmlns="http://www.w3.org/2000/svg"
        
    >
        <title>life ring icon</title>
        <path
            fillRule="evenodd"
            clipRule="evenodd"
            d="M5.66925 6.90669C4.54685 8.30001 3.875 10.0715 3.875 12C3.875 13.9285 4.54685 15.7 5.66925 17.0933L8.27772 14.4848C7.80226 13.774 7.525 12.9194 7.525 12C7.525 11.0806 7.80226 10.226 8.27772 9.51515L5.66925 6.90669ZM6.90669 5.66925L9.51515 8.27772C10.226 7.80226 11.0806 7.525 12 7.525C12.9194 7.525 13.774 7.80226 14.4848 8.27772L17.0933 5.66925C15.7 4.54685 13.9285 3.875 12 3.875C10.0715 3.875 8.30001 4.54685 6.90669 5.66925ZM18.3307 6.90669L15.7223 9.51515C16.1977 10.226 16.475 11.0806 16.475 12C16.475 12.9194 16.1977 13.774 15.7223 14.4848L18.3307 17.0933C19.4532 15.7 20.125 13.9285 20.125 12C20.125 10.0715 19.4532 8.30001 18.3307 6.90669ZM17.0933 18.3307L14.4848 15.7223C13.774 16.1977 12.9194 16.475 12 16.475C11.0806 16.475 10.226 16.1977 9.51515 15.7223L6.90669 18.3307C8.30001 19.4532 10.0715 20.125 12 20.125C13.9285 20.125 15.7 19.4532 17.0933 18.3307ZM2.125 12C2.125 6.54619 6.54619 2.125 12 2.125C17.4538 2.125 21.875 6.54619 21.875 12C21.875 17.4538 17.4538 21.875 12 21.875C6.54619 21.875 2.125 17.4538 2.125 12ZM12 9.275C10.495 9.275 9.275 10.495 9.275 12C9.275 13.505 10.495 14.725 12 14.725C13.505 14.725 14.725 13.505 14.725 12C14.725 10.495 13.505 9.275 12 9.275Z"
            fill="currentColor"
        />
    </svg>

<svg aria-hidden="true" data-testid="test-icon" fill="currentColor" viewBox="0 0 24 24" xmlns="http://www.w3.org/2000/svg"><path fill-rule="evenodd" clip-rule="evenodd" d="M5.67 6.907A8.09 8.09 0 003.874 12c0 1.928.672 3.7 1.794 5.093l2.609-2.608A4.454 4.454 0 017.525 12c0-.92.277-1.774.753-2.485L5.669 6.907zm1.237-1.238l2.608 2.609A4.454 4.454 0 0112 7.525c.92 0 1.774.277 2.485.753l2.608-2.609A8.09 8.09 0 0012 3.875a8.09 8.09 0 00-5.093 1.794zM18.33 6.907l-2.609 2.608c.476.711.753 1.566.753 2.485 0 .92-.277 1.774-.753 2.485l2.609 2.608A8.09 8.09 0 0020.125 12a8.09 8.09 0 00-1.794-5.093zM17.093 18.33l-2.608-2.609a4.454 4.454 0 01-2.485.753c-.92 0-1.774-.277-2.485-.753l-2.608 2.609A8.09 8.09 0 0012 20.125a8.09 8.09 0 005.093-1.794zM2.125 12c0-5.454 4.421-9.875 9.875-9.875S21.875 6.546 21.875 12 17.454 21.875 12 21.875 2.125 17.454 2.125 12zM12 9.275a2.725 2.725 0 100 5.45 2.725 2.725 0 000-5.45z"/></svg>
